symbols/web/baby_changing_station/materialsymbolsoutlined/baby_changing_station_wght700fill1_24px.svg

<svg xmlns="http://www.w3.org/2000/svg" height="24" width="24"><path d="M1.75 23.35V11.9l1.625-4.725q.375-1.1 1.412-1.538 1.038-.437 2.088.013L10.9 7.425h3v3.15h-3.675L7.975 9.6 6.9 12.85v10.5ZM7.725 4.625q-.975 0-1.688-.713-.712-.712-.712-1.687 0-.975.712-1.675.713-.7 1.688-.7T9.4.55q.7.7.7 1.675 0 .975-.7 1.687-.7.713-1.675.713Zm1 16.875v-3.15H22.25v3.15Zm11.65-4.15q-.775 0-1.337-.562-.563-.563-.563-1.338 0-.775.563-1.325.562-.55 1.337-.55.775 0 1.325.55.55.55.55 1.325 0 .775-.55 1.338-.55.562-1.325.562Zm-6.9 0q-1.325 0-2.037-.737-.713-.738-.713-2.038v-.225h-2v-2.775H11.9q.65 0 1.113.462.462.463.462 1.113v.425h1.25v-2h2.75v3q0 1.325-.712 2.05-.713.725-2.038.725Z"/></svg>

<svg xmlns="http://www.w3.org/2000/svg" height="24" width="24"><path d="M1.75 23.35V11.9L3.375 7.175Q3.75 6.075 4.787 5.637Q5.825 5.2 6.875 5.65L10.9 7.425H13.9V10.575H10.225L7.975 9.6L6.9 12.85V23.35ZM7.725 4.625Q6.75 4.625 6.037 3.912Q5.325 3.2 5.325 2.225Q5.325 1.25 6.037 0.55Q6.75 -0.15 7.725 -0.15Q8.7 -0.15 9.4 0.55Q10.1 1.25 10.1 2.225Q10.1 3.2 9.4 3.912Q8.7 4.625 7.725 4.625ZM8.725 21.5V18.35H22.25V21.5ZM20.375 17.35Q19.6 17.35 19.038 16.788Q18.475 16.225 18.475 15.45Q18.475 14.675 19.038 14.125Q19.6 13.575 20.375 13.575Q21.15 13.575 21.7 14.125Q22.25 14.675 22.25 15.45Q22.25 16.225 21.7 16.788Q21.15 17.35 20.375 17.35ZM13.475 17.35Q12.15 17.35 11.438 16.613Q10.725 15.875 10.725 14.575V14.35H8.725V11.575H11.9Q12.55 11.575 13.013 12.037Q13.475 12.5 13.475 13.15V13.575H14.725V11.575H17.475V14.575Q17.475 15.9 16.763 16.625Q16.05 17.35 14.725 17.35Z"/></svg>
